X:1
T:Temple Boro, 87.87.87
T:Temple Boro, 87.87.87
T:F. Pinder, before 1913
T:Public Domain Courtesy of the Cyber Hymnal™
C:F. Pinder, before 1913
Z:Public Domain
Z:Courtesy of the Cyber Hymnal™
%%score ( 1 2 ) ( 3 4 )
L:1/8
Q:1/4=130
M:3/2
K:Db
V:1 treble 
V:2 treble 
V:3 bass 
V:4 bass 
V:1
 [FA]2 [Fd]2 | [Gd]6 [Gc]2 [Gd]2 [GB]2 | [GB]4 [FA]4 [DF]2 [DA]2 | [CG]6 [CE]2 [DF]2 [CG]2 | %4
 [DF]8 [FA]2 [Fd]2 | [Ed]6 [EB]2 [=Gc]2 [Gd]2 | [Ge]4 [GA]4 [FA]2 [_FB]2 | %7
 [Ec]6 [=DB]2 [Ec]2 [_DB]2 | [CA]8 [FA]2 [Ff]2 | [Ff]6 [Fe]2 [Gd]2 [GB]2 | %10
 [GB]4 [FA]4 [DB]2 [DG]2 | [DF]6 D2 [CF]2 [CE]2 | D8 |] %13
V:2
 x4 | x12 | x12 | x12 | x12 | x12 | x12 | x12 | x12 | x12 | x12 | x6 D2 x4 | D8 |] %13
V:3
 [D,A,]2 [D,A,]2 | [D,B,]6 [D,A,]2 [D,B,]2 [D,B,]2 | [D,C]4 [D,D]4 [D,A,]2 [F,A,]2 | %3
 [E,A,]6 [G,A,]2 [F,A,]2 [E,A,]2 | [D,A,]8 [D,A,]2 [D,A,]2 | [E,=G,]6 [E,G,]2 [E,D]2 [E,D]2 | %6
 [A,C]4 [A,C]4 [D,D]2 [D,=G,]2 | [A,,A,]6 [F,A,]2 [E,=G,]2 [E,G,]2 | [A,,A,]8 [D,A,]2 [D,D]2 | %9
 [D,_C]6 [D,C]2 [D,B,]2 [D,=C]2 | [D,C]4 (D2 C2) [G,B,]2 [G,B,]2 | A,6 [A,,F,]2 [A,,A,]2 [A,,G,]2 | %12
 [D,F,]8 |] %13
V:4
 x4 | x12 | x12 | x12 | x12 | x12 | x12 | x12 | x12 | x12 | x4 D,4 x4 | A,6 x6 | x8 |] %13

